asset/images/icons/icon-24/ventilation.svg

<svg width="24" height="24" viewBox="0 0 24 24" fill="none" xmlns="http://www.w3.org/2000/svg">
<path fill-rule="evenodd" clip-rule="evenodd" d="M5 1.75L5.75 1.75V0.25H5C3.75608 0.25 2.57493 0.86441 1.71967 1.71967C0.86441 2.57493 0.25 3.75608 0.25 5V5.75L1.75 5.75L1.75 5C1.75 4.24392 2.13559 3.42507 2.78033 2.78033C3.42507 2.13559 4.24392 1.75 5 1.75ZM11.25 2L12.5303 1.46967L17.5303 6.46967V7.53033L13.8107 11.25H22L22.5303 12.5303L17.5303 17.5303H16.4697L12.75 13.8107V22L11.4697 22.5303L6.46967 17.5303V16.4697L10.1893 12.75H2L1.46967 11.4697L6.46967 6.46967H7.53033L11.25 10.1893V2ZM10.1893 11.25L7 8.06066L3.81066 11.25H10.1893ZM11.25 20.1893L8.06066 17L11.25 13.8107V20.1893ZM20.1893 12.75L17 15.9393L13.8107 12.75H20.1893ZM12.75 10.1893L15.9393 7L12.75 3.81066V10.1893ZM18.25 22.25H19C19.7561 22.25 20.5749 21.8644 21.2197 21.2197C21.8644 20.5749 22.25 19.7561 22.25 19V18.25H23.75V19C23.75 20.2439 23.1356 21.4251 22.2803 22.2803C21.4251 23.1356 20.2439 23.75 19 23.75H18.25V22.25Z" fill="#8A8CCE"/>
</svg>

<svg xmlns="http://www.w3.org/2000/svg" viewBox="0 0 24 24" fill="#8a8cce">
<path d="M5,1.75H5.75V0.25H5A4.76,4.76,0,0,0,1.72,1.72,4.76,4.76,0,0,0,.25,5V5.75h1.5V5a3.27,3.27,0,0,1,1-2.22A3.27,3.27,0,0,1,5,1.75Z"/>
<path d="M18.25,22.25H19A3.56,3.56,0,0,0,22.25,19V18.25h1.5V19A5,5,0,0,1,19,23.75H18.25v-1.5Z"/>
<path d="M11.25,2l1.28-.53,5,5V7.53l-3.72,3.72H22l0.53,1.28-5,5H16.47l-3.72-3.72V22l-1.28.53-5-5V16.47l3.72-3.72H2L1.47,11.47l5-5H7.53l3.72,3.72V2Zm-1.06,9.25L7,8.06,3.81,11.25h6.38Zm2.56-1.06L15.94,7,12.75,3.81v6.38Zm1,2.56L17,15.94l3.19-3.19H13.78Zm-2.53,1.1L8.06,17l3.19,3.19V13.84Z"/>
</svg>
